fs/phone_checkmark_20_filled.svg

<svg viewBox="0 0 20 20" fill="none" xmlns="http://www.w3.org/2000/svg" height="1em" width="1em">
  <path d="M18 5.5C18 7.98528 15.9853 10 13.5 10C11.0147 10 9 7.98528 9 5.5C9 3.01472 11.0147 1 13.5 1C15.9853 1 18 3.01472 18 5.5ZM15.8536 3.64645C15.6583 3.45118 15.3417 3.45118 15.1464 3.64645L12.5 6.29289L11.8536 5.64645C11.6583 5.45118 11.3417 5.45118 11.1464 5.64645C10.9512 5.84171 10.9512 6.15829 11.1464 6.35355L12.1464 7.35355C12.3417 7.54882 12.6583 7.54882 12.8536 7.35355L15.8536 4.35355C16.0488 4.15829 16.0488 3.84171 15.8536 3.64645ZM6.5 2H9.25716C8.47182 2.95094 8 4.17037 8 5.5C8 8.53757 10.4624 11 13.5 11C14.02 11 14.5232 10.9278 15 10.793V16.5C15 17.3284 14.3284 18 13.5 18H6.5C5.67157 18 5 17.3284 5 16.5V3.5C5 2.67157 5.67157 2 6.5 2ZM8 14.5C8 14.7761 8.22386 15 8.5 15H11.5C11.7761 15 12 14.7761 12 14.5C12 14.2239 11.7761 14 11.5 14H8.5C8.22386 14 8 14.2239 8 14.5Z" fill="#212121"/>
</svg>

<svg viewBox="0 0 20 20" fill="none" xmlns="http://www.w3.org/2000/svg" height="1em" width="1em">
  <path d="M18 5.5a4.5 4.5 0 1 1-9 0 4.5 4.5 0 0 1 9 0Zm-2.146-1.854a.5.5 0 0 0-.708 0L12.5 6.293l-.646-.647a.5.5 0 0 0-.708.708l1 1a.5.5 0 0 0 .708 0l3-3a.5.5 0 0 0 0-.708ZM6.5 2h2.757A5.5 5.5 0 0 0 15 10.793V16.5a1.5 1.5 0 0 1-1.5 1.5h-7A1.5 1.5 0 0 1 5 16.5v-13A1.5 1.5 0 0 1 6.5 2ZM8 14.5a.5.5 0 0 0 .5.5h3a.5.5 0 0 0 0-1h-3a.5.5 0 0 0-.5.5Z" fill="#212121"/>
</svg>
